assets/Game die/Flat/game_die_flat.svg

<svg width="32" height="32" viewBox="0 0 32 32" fill="none" xmlns="http://www.w3.org/2000/svg">
<path d="M13.8828 2.45108L4.49429 6.50391C3.53238 6.93494 3 8.02436 3 9.12699V22.1681C3 23.6817 3.5463 24.9775 4.85714 25.5588L14.1429 29.6016C15.3405 30.1328 16.6595 30.1328 17.8571 29.6016L27.1429 24.5548C28.4537 23.9734 29 23.6817 29 22.1681V9.12699C29 8.02436 28.5691 6.93494 27.6071 6.50391L18.1172 2.45108C16.778 1.84964 15.2408 1.84964 13.8828 2.45108Z" fill="#F3EEF8"/>
<path d="M4.85714 25.5587C3.5463 24.9773 3 23.6816 3 22.168H29C29 23.6816 28.4537 24.0387 27.1429 24.62L17.8571 29.6014C16.6595 30.1327 15.3405 30.1327 14.1429 29.6014L4.85714 25.5587Z" fill="#B4ACBC"/>
<path d="M3 9.23415C3 8.14473 4.12468 7.41867 5.1175 7.86714L14.235 11.9857C15.3094 12.471 16 13.5407 16 14.7197V28.1151C16 29.1973 14.8888 29.9234 13.8977 29.4888L4.19688 25.2354C3.4697 24.9166 3 24.1978 3 23.4037V9.23415Z" fill="#B4ACBC"/>
<path d="M29 9.25368C29 8.16426 27.8753 7.4382 26.8825 7.88667L17.765 12.0052C16.6906 12.4906 16 13.5602 16 14.7392V28.1346C16 29.2169 17.1112 29.943 18.1023 29.5084L27.8031 25.2549C28.5303 24.9361 29 24.2173 29 23.4233V9.25368Z" fill="#E1D8EC"/>
<path d="M6.68549 15.9964C7.50506 15.9307 8.09168 14.9779 7.98815 13.8772C7.88463 12.7684 7.13408 11.9306 6.31451 12.0045C5.49494 12.0702 4.90832 13.023 5.01185 14.1237C5.11537 15.2243 5.86592 16.0621 6.68549 15.9964ZM26.9882 14.1228C27.0917 13.0221 26.5051 12.0693 25.6855 12.0036C24.8659 11.9379 24.1154 12.7757 24.0118 13.8763C23.9083 14.977 24.4949 15.9298 25.3145 15.9955C26.1341 16.0694 26.8846 15.2316 26.9882 14.1228ZM13.9882 23.8772C14.0917 24.9779 13.5051 25.9307 12.6855 25.9964C11.8659 26.0621 11.1154 25.2243 11.0118 24.1237C10.9083 23.023 11.4949 22.0702 12.3145 22.0045C13.1341 21.9306 13.8846 22.7684 13.9882 23.8772ZM22.6855 17.0036C23.5051 17.0693 24.0917 18.0221 23.9882 19.1228C23.8846 20.2316 23.1341 21.0694 22.3145 20.9955C21.4949 20.9298 20.9083 19.977 21.0118 18.8763C21.1154 17.7757 21.8659 16.9379 22.6855 17.0036ZM20.9882 24.1228C21.0917 23.0221 20.5051 22.0693 19.6855 22.0036C18.8659 21.9379 18.1154 22.7757 18.0118 23.8763C17.9083 24.977 18.4949 25.9298 19.3145 25.9955C20.1341 26.0694 20.8846 25.2316 20.9882 24.1228Z" fill="#433B6B"/>
<path d="M16 7.5C17.6568 7.5 19 7.05229 19 6.5C19 5.94771 17.6568 5.5 16 5.5C14.3431 5.5 13 5.94771 13 6.5C13 7.05229 14.3431 7.5 16 7.5Z" fill="#F8312F"/>
</svg>

<svg xmlns="http://www.w3.org/2000/svg" width="32" height="32" fill="none"><path fill="#F3EEF8" d="M13.883 2.451 4.494 6.504C3.532 6.934 3 8.024 3 9.127v13.041c0 1.514.546 2.81 1.857 3.39l9.286 4.044a4.528 4.528 0 0 0 3.714 0l9.286-5.047c1.31-.582 1.857-.873 1.857-2.387V9.127c0-1.103-.43-2.192-1.393-2.623l-9.49-4.053a5.194 5.194 0 0 0-4.234 0Z"/><path fill="#B4ACBC" d="M4.857 25.559C3.547 24.977 3 23.682 3 22.168h26c0 1.514-.546 1.87-1.857 2.452l-9.286 4.981a4.527 4.527 0 0 1-3.714 0L4.857 25.56Z"/><path fill="#B4ACBC" d="M3 9.234a1.5 1.5 0 0 1 2.117-1.367l9.118 4.119A3 3 0 0 1 16 14.72v13.395a1.5 1.5 0 0 1-2.102 1.374l-9.701-4.254A2 2 0 0 1 3 23.404V9.234Z"/><path fill="#E1D8EC" d="M29 9.254a1.5 1.5 0 0 0-2.117-1.367l-9.118 4.118A3 3 0 0 0 16 14.74v13.396a1.5 1.5 0 0 0 2.102 1.373l9.701-4.253A2 2 0 0 0 29 23.423V9.253Z"/><path fill="#433B6B" d="M6.685 15.996c.82-.065 1.407-1.018 1.303-2.119-.103-1.109-.854-1.946-1.673-1.873-.82.066-1.407 1.019-1.303 2.12.103 1.1.854 1.938 1.673 1.872Zm20.303-1.873c.104-1.1-.483-2.054-1.302-2.12-.82-.065-1.57.773-1.674 1.873-.104 1.101.483 2.054 1.302 2.12.82.073 1.57-.764 1.674-1.873Zm-13 9.754c.104 1.1-.483 2.054-1.303 2.12-.82.065-1.57-.773-1.673-1.873-.104-1.101.483-2.054 1.303-2.12.82-.073 1.57.764 1.673 1.873Zm8.698-6.873c.82.065 1.406 1.018 1.302 2.119-.103 1.109-.854 1.946-1.674 1.872-.82-.065-1.406-1.018-1.302-2.119.103-1.1.854-1.938 1.674-1.872Zm-1.698 7.119c.104-1.1-.483-2.054-1.302-2.12-.82-.065-1.57.773-1.674 1.873-.104 1.101.483 2.054 1.302 2.12.82.073 1.57-.764 1.674-1.873Z"/><path fill="#F8312F" d="M16 7.5c1.657 0 3-.448 3-1s-1.343-1-3-1-3 .448-3 1 1.343 1 3 1Z"/></svg>
